X:1
T:Light in the Eastern Sky
T:Light in the Eastern Sky
T:Daniel Brink Towner
T:Daniel Brink Towner, 1905
T:Public Domain Courtesy of the Cyber Hymnal™
T:Public Domain Courtesy of the Cyber Hymnal™
C:Daniel Brink Towner
Z:Public Domain
Z:Courtesy of the Cyber Hymnal™
%%score ( 1 2 ) ( 3 4 )
L:1/8
Q:1/4=115
M:3/4
K:D
V:1 treble 
V:2 treble 
V:3 bass 
V:4 bass 
V:1
 [FA]2 [DF]2 D2 | [DB]3 [DB] [DA]2 | [Ec]2 [GB]2 [Gc]2 | [Fd]4 [FA]2 | [EG]2 [DF]2 [EG]2 | %5
w: 1.~Light in the|east- ern sky,|Je- sus re-|turn- ing!|Light in the|
w: 2.~Bright be our|lamps as we|watch for the|dawn- ing,|Gird- ed our|
w: 3.~Not as at|Naz- a- reth—|low- ly they|found Him;|He as the|
w: 4.~Judge of the|earth, who in|mer- cy un-|fail- ing|Of- fered Thy-|
 [Ec]3 [Ec] [EG]2 | [EG]2 [CE]2 [EB]2 | (B2 A4) | [DA]2 [DF]2 [FA]2 | [Fd]3 [Ac] [GB]2 | %10
w: west- ern sky,|Je- sus is|near! *|Soon shall the|na- tions, His|
w: loins, that our|strength may not|fail; *|So as He|shines through the|
w: Judge com- eth|back from the|sky; *|Borne on the|whirl- wind, with|
w: self as a-|tonem- ent for|sin, *|In that great|day, by Thy|
 [EB]2 [E^A]2 [DB]2 | [Ec]2 [EF]4 | [DB]2 [Gd]2 [GB]2 | [FA]3 [DF] D2 | [DE]2 [DF]3 [CE] | D6 || %16
w: ad- vent dis-|cern- ing,|Hail Him with|glad- ness, or|see Him with|fear.|
w: mists of the|morn- ing,|We may be|rea- dy to|cry Him, “All|hail!”|
w: an- gels a-|round Him,|Veil- ing their|face from His|glo- ry so|nigh.|
w: love all pre-|vail- ing,|Grant us the|rest of Thy|hea- ven to|win!|
"^Refrain" [Fd]4 [Ac][GB] | [DF]4 [DF][DF] | [EG]2 [DF]2 [D^E]2 | [DF]6 | [Fd]4 [Fc][FB] | %21
w: |||||
w: Lord, by Thy|hands that were|nail pierced and|torn:|Lord by the|
w: |||||
w: |||||
 [DF]4 [DF][DF] | [EA]2 [CE]2 [CG]2 | [DF]6 | [FA]4 [GB][Gc] | [Fd]2 [DA]2 [DF]2 | %26
w: |||||
w: crown that they|wove of the|thorns:|Lord, by Thy|pass- ion in|
w: |||||
w: |||||
 [FA]2 [G_B]3 [GA] | [FA]6 | [Fd]2 [Gc]2 [GB]2 | [FA]3 [DF] D2 | [DE]2 [DF]3 [CE] | D6 |] %32
w: ||||||
w: Geth- sem- a-|ne:|Christ of all|ten- der- ness,|plead Thou for|me!|
w: ||||||
w: ||||||
V:2
 x4 D2 | x6 | x6 | x6 | x6 | x6 | x6 | D6 | x6 | x6 | x6 | x6 | x6 | x6 | x6 | D6 || x6 | x6 | x6 | %19
 x6 | x6 | x6 | x6 | x6 | x6 | x6 | x6 | x6 | x6 | x6 | x6 | D6 |] %32
V:3
 [D,D]2 [D,A,]2 [D,F,]2 | [D,G,]3 [D,G,] [D,F,]2 | A,2 [A,C]2 A,2 | [D,A,]4 [D,D]2 | A,2 A,2 A,2 | %5
 A,3 [G,A,] [E,A,]2 | [C,A,]2 [A,,A,]2 [A,,G,]2 | (G,2 F,4) | [D,F,]2 [D,A,]2 [D,D]2 | %9
 [D,A,]3 [F,D] [G,D]2 | [G,C]2 [G,C]2 [F,B,]2 | [F,^A,]2 [F,A,]4 | [G,B,]2 [G,B,]2 [G,D]2 | %13
 [D,D]3 [D,A,] [F,A,]2 | [G,B,]2 A,3 [A,,G,] | [D,F,]6 || [D,A,]4 [D,D][D,D] | %17
 [D,A,]4 [B,,B,][B,,B,] | [^A,,C]2 [B,,D]2 [B,,G,]2 | [B,,F,]6 | [B,,B,]4 [B,,C][B,,D] | %21
 [B,,B,]4 [B,,B,][B,,B,] | [A,,C]2 [A,,A,]2 [A,,A,]2 | [D,A,]6 | [D,D]4 [G,D][E,A,] | %25
 [D,A,]2 [D,F,]2 [D,A,]2 | [D,D]2 [E,C]3 [A,,C] | [D,D]6 | [D,A,]2 [D,A,]2 (B,C) | %29
 [D,D]3 [D,A,] [F,A,]2 | [G,B,]2 A,3 [A,,G,] | [D,F,]6 |] %32
V:4
 x6 | x6 | A,2 A,2 x2 | x6 | A,2 A,2 A,2 | A,3 x3 | x6 | D,6 | x6 | x6 | x6 | x6 | x6 | x6 | %14
 x2 A,3 x | x6 || x6 | x6 | x6 | x6 | x6 | x6 | x6 | x6 | x6 | x6 | x6 | x6 | x4 D,2 | x6 | x6 | %31
 x6 |] %32

